src/assets/images/landing/2-deco-4.svg

<svg width="248" height="748" viewBox="0 0 248 748" fill="none" xmlns="http://www.w3.org/2000/svg">
<mask id="mask0_1059_24" style="mask-type:alpha" maskUnits="userSpaceOnUse" x="0" y="0" width="248" height="748">
<rect width="248" height="748" fill="#D9D9D9"/>
</mask>
<g mask="url(#mask0_1059_24)">
<path d="M213.854 169.427L289.858 695.831C275.244 702.672 237.009 717.656 200.974 722.859C164.939 728.062 126.172 724.196 111.292 721.613L35.2891 195.209" stroke="#D9D9D9" stroke-width="5"/>
<path d="M38.1472 106.925C34.529 118.262 35.5278 172.194 35.484 196.534C49.4842 191.133 85.0232 176.809 123.141 172.387C161.26 167.965 200.102 168.936 213.858 169.428C213.499 149.878 202.796 105.324 170.06 87.879C137.325 70.4344 74.19 72.2046 46.7147 75.2703C45.3664 81.0978 41.7654 95.5873 38.1472 106.925Z" stroke="#81EC40" stroke-width="5"/>
<ellipse cx="49.2388" cy="130.87" rx="7" ry="9.5" transform="rotate(-8.2157 49.2388 130.87)" stroke="#81EC40" stroke-width="5"/>
</g>
</svg>

<svg width="248" height="748" fill="none" xmlns="http://www.w3.org/2000/svg"><mask id="a" style="mask-type:alpha" maskUnits="userSpaceOnUse" x="0" y="0" width="248" height="748"><path fill="#D9D9D9" d="M0 0h248v748H0z"/></mask><g mask="url(#a)" stroke-width="5"><path d="M213.854 169.427l76.004 526.404c-14.614 6.841-52.849 21.825-88.884 27.028-36.035 5.203-74.802 1.337-89.682-1.246L35.289 195.209" stroke="#D9D9D9"/><path d="M38.147 106.925c-3.618 11.337-2.62 65.269-2.663 89.609 14-5.401 49.54-19.725 87.657-24.147 38.119-4.422 76.961-3.451 90.717-2.959-.359-19.55-11.062-64.104-43.798-81.549C137.325 70.434 74.19 72.205 46.715 75.27c-1.349 5.828-4.95 20.317-8.568 31.655z" stroke="#81EC40"/><ellipse cx="49.239" cy="130.87" rx="7" ry="9.5" transform="rotate(-8.216 49.239 130.87)" stroke="#81EC40"/></g></svg>
